X:133
T:Colonel Fraser of Knocky
R:Strathspey
B:The Athole Collection
M:C
L:1/8
K:G
c|d2 B>d G>Gd>B|d>e B<d e<AA>e|d2 B>d G>Gd>B|c>ed>A B<GG:|
c|B>GB>d c>ed>B|c>eB>d e>AA>c|B>GB>d c>ed>B|c>eB>g B>GG>c|
B>GB>d c>ed>B|c>eB>d e>AA>c|B>G (3Bcd (3def g>B|c>ed>A B<GG||

